X:630
T:Daniel O'Connell
R:Jig
D:From RTE 'The Pure Drop'
S:Seamus Quinn, Fermanagh (fiddle)
Z:Transcription:Bernie Stocks, chords:Mike Long
M:6/8
L:1/8
K:D
c|\
"D"d2D {G}FED|"(A)"AFA BAF|"G"GBG F2E|"A"DFA B2c|\
"D"d2D {G}FED|"(A)"AFA {d}BAF|"G"~G3 "A"EAG|"D"FDD D2:|
|:d|\
"D"dcd "A"ede|"D"fdB AFA|"D"{e}dcd "A"efg|"D"fdd d2A|\
"D"ded {e}dcB|AFd AFD|"G"~G3 "A"EAG|"D"FDD D2:|
